!!!COM:	Pierre de la Rue
**kern	**kern
*part2	*part1
*staff2	*staff1
*clefF4	*clefG2
*k[]	*k[]
*M2/1	*M2/1
=1-	=1-
0r	1a
.	2a
.	[2g
=2	=2
1r	2g]
.	4f
.	4e
1d	1f
=3	=3
2d	2f
1c	1e
4B	2a
4A	.
=4	=4
1B	2g
.	1f
[1A	.
.	4e
.	4d
=5	=5
1A]	0c
2r	.
2c	.
=6	=6
2B	1r
1A	.
.	1e
4G	.
4F	.
=7	=7
1E	1g
2r	2.g
2E	.
.	4a
=8	=8
1G	2b
.	1g
2.G	.
.	4f
4A	4e
=9	=9
2B	2d
2.G	2.g
4A	4f
4B	4g
4c	4a
=10	=10
4d	2b
4c	.
4B	1a
4A	.
1B	.
.	2g
=11	=11
1A	0a
2r	.
2d	.
=12	=12
2d	1r
2c	.
2d	1a
[2f	.
=13	=13
2f]	1a
4e	.
4d	.
2e	[1g
[2c	.
=14	=14
2c]	1g]
4B	.
4A	.
1G	1b
=15	=15
1.F	2a
.	1a
2E	2g
=16	=16
2F	2a
1A	1cc
4G	4b
4F	4a
=17	=17
1G	2b
.	1g
[1B	.
.	4f
.	4e
=18	=18
1B-X	1d
1A	[1c
=19	=19
2r	1c]
1c	.
.	2r
4B	[2g
4A	.
=20	=20
2G	2g]
1d	4f
.	4e
.	2d
4c	2a
4B	.
=21	=21
1A	2a
.	2.cc
2A	.
.	4b
[2c	2a
=22	=22
4c]	2g
4B	.
2A	1f
1G	.
.	2e
=23	=23
0F	1f
.	2r
.	[2f
=24	=24
1r	4f]
.	4g
.	4a
.	4f
2r	2g
[2A	[2f
=25	=25
4A]	4f]
4B	4d
4c	4e
4A	4f
2B	2g
[2A	2a
=26	=26
4A]	2.f
4F	.
4G	.
4A	4e
2B	2d
2c	[2g
=27	=27
4B	4g]
4A	4f
1d	4e
.	4d
.	1e
2c	.
=28	=28
0d	0d
==	==
*-	*-
